X: 503
T: Zycanthos Jig
R: Jig
M: 6/8
C: Roger Wilson
S: Clare Maher 2008-4-30 [email]
K: Am
|:"Am"a2a  gag |    e2a ag2 |    e2c  BcB | A2F "F"F3 |
| "Am"EAB  cBA | "F"FAB cBA | "G"B2B ed(B | B)"Am"cd cBA :|
|:"Am"EAB cBA|"F"BAB cBA|"G"B2B edc|"Am"Bcd cBA|
|"Am"EAB cBA|"F"BAB cBA|"G"B2B edc|"Am"B2AAF2:|
|:"Dm"d2d-d2 c |    dc2 B2A |    d2-d2 cd |"Em" B3 A3|
| "Dm"d2d-d2 c |    dc2 B2A |    d2-d2 cd | "Em"e3 e3 :|"last time" e3 z3|

